X:1
T:Betsy
M:4/2
L:1/4
K:D
 A =c ^C| C2- C E G F| D3 A A A| d3 A =c- d|
M:4/2
(2e15.9999925000037/23.999988000006e15.9999925000037/23.999988000006d15.9999925000037/23.999988000006 =c15.9999925000037/23.999988000006 c3 A A A|\

M:3/2
 d3- A =c d|
M:4/2
 e d =c3 A c15.9999925000037/23.999988000006 c15.9999925000037/23.999988000006 c15.9999925000037/23.999988000006|\
 =C3 E/2E/2 G F D3|||

